src/main/resources/icons/settings@20x20.svg

<!-- Copyright 2000-2023 JetBrains s.r.o. and contributors. Use of this source code is governed by the Apache 2.0 license. -->
<svg width="20" height="20" viewBox="0 0 20 20" fill="none" xmlns="http://www.w3.org/2000/svg">
<path fill-rule="evenodd" clip-rule="evenodd" d="M3.96446 5.54781C3.63344 5.99572 3.35137 6.48132 3.12584 6.99671L4.14987 8.72634C4.61489 9.51177 4.61489 10.4882 4.14987 11.2736L3.12584 13.0033C3.35137 13.5187 3.63344 14.0043 3.96446 14.4522L5.9723 14.4302C6.88501 14.4202 7.73062 14.9084 8.17831 15.7038L9.16331 17.4539C9.43778 17.4843 9.71717 17.5 10.0007 17.5C10.2843 17.5 10.5637 17.4843 10.8382 17.4539L11.8232 15.7038C12.2709 14.9084 13.1165 14.4202 14.0292 14.4302L16.037 14.4522C16.368 14.0043 16.6501 13.5186 16.8756 13.0033L15.8516 11.2736C15.3866 10.4882 15.3866 9.51177 15.8516 8.72634L16.8756 6.99671C16.6501 6.48132 16.368 5.99572 16.037 5.54781L14.0292 5.56981C13.1165 5.57981 12.2709 5.09159 11.8232 4.29617L10.8382 2.5461C10.5637 2.51567 10.2843 2.5 10.0007 2.5C9.71717 2.5 9.43779 2.51567 9.16332 2.54609L8.17831 4.29617C7.73062 5.09159 6.88501 5.57981 5.9723 5.56981L3.96446 5.54781ZM13.6234 10C13.6234 12.0008 12.0015 13.6227 10.0007 13.6227C7.99996 13.6227 6.37802 12.0008 6.37802 10C6.37802 7.99924 7.99996 6.37729 10.0007 6.37729C12.0015 6.37729 13.6234 7.99923 13.6234 10ZM5.98873 4.0699C6.35382 4.0739 6.69206 3.87861 6.87114 3.56044L7.98752 1.57695C8.13019 1.32346 8.37572 1.14153 8.66343 1.09868C9.09976 1.03368 9.54632 1 10.0007 1C10.4552 1 10.9017 1.03368 11.3381 1.09868C11.6258 1.14154 11.8713 1.32346 12.014 1.57695L13.1303 3.56044C13.3094 3.87861 13.6477 4.0739 14.0127 4.0699L16.2875 4.04498C16.5778 4.0418 16.8576 4.16301 17.0387 4.38992C17.594 5.08559 18.0482 5.8654 18.3793 6.70716C18.4856 6.9775 18.4507 7.28065 18.3027 7.53062L17.1424 9.49053C16.9563 9.8047 16.9563 10.1953 17.1424 10.5094L18.3027 12.4694C18.4507 12.7193 18.4856 13.0225 18.3793 13.2928C18.0482 14.1346 17.594 14.9144 17.0387 15.6101C16.8576 15.837 16.5778 15.9582 16.2875 15.955L14.0128 15.9301C13.6477 15.9261 13.3094 16.1214 13.1303 16.4395L12.014 18.423C11.8713 18.6765 11.6258 18.8584 11.3381 18.9013C10.9017 18.9663 10.4552 19 10.0007 19C9.54631 19 9.09976 18.9663 8.66343 18.9013C8.37571 18.8584 8.13018 18.6765 7.98751 18.423L6.87114 16.4395C6.69206 16.1214 6.35382 15.9261 5.98873 15.9301L3.71401 15.955C3.4237 15.9582 3.14389 15.837 2.96277 15.6101C2.40752 14.9144 1.95325 14.1346 1.62217 13.2928C1.51585 13.0225 1.55076 12.7193 1.69876 12.4694L2.85913 10.5094C3.04514 10.1953 3.04514 9.8047 2.85913 9.49053L1.69876 7.53061C1.55076 7.28064 1.51584 6.97749 1.62217 6.70715C1.95325 5.86539 2.40751 5.08558 2.96276 4.38992C3.14388 4.16301 3.42369 4.0418 3.71401 4.04498L5.98873 4.0699ZM12.1234 10C12.1234 11.1723 11.1731 12.1227 10.0007 12.1227C8.82839 12.1227 7.87802 11.1723 7.87802 10C7.87802 8.82766 8.82839 7.87729 10.0007 7.87729C11.1731 7.87729 12.1234 8.82766 12.1234 10Z" fill="#6C707E"/>
</svg>

<svg xmlns="http://www.w3.org/2000/svg" width="20" height="20" fill="none"><path fill="#6C707E" fill-rule="evenodd" d="M3.964 5.548a7.5 7.5 0 0 0-.838 1.449l1.024 1.73a2.5 2.5 0 0 1 0 2.547l-1.024 1.73a7.5 7.5 0 0 0 .838 1.448l2.008-.022a2.5 2.5 0 0 1 2.206 1.274l.985 1.75a7.6 7.6 0 0 0 1.675 0l.985-1.75a2.5 2.5 0 0 1 2.206-1.274l2.008.022q.498-.673.839-1.449l-1.024-1.73a2.5 2.5 0 0 1 0-2.547l1.024-1.73a7.5 7.5 0 0 0-.839-1.448l-2.008.022a2.5 2.5 0 0 1-2.206-1.274l-.985-1.75a7.6 7.6 0 0 0-1.675 0l-.985 1.75A2.5 2.5 0 0 1 5.972 5.57zM13.624 10a3.623 3.623 0 1 1-7.246 0 3.623 3.623 0 0 1 7.245 0M5.988 4.07a1 1 0 0 0 .882-.51l1.117-1.983a.94.94 0 0 1 .675-.478 9 9 0 0 1 2.675 0 .94.94 0 0 1 .676.478L13.13 3.56a1 1 0 0 0 .883.51l2.275-.025c.29-.003.57.118.75.345a9 9 0 0 1 1.341 2.317.94.94 0 0 1-.076.824l-1.16 1.96a1 1 0 0 0 0 1.018l1.16 1.96a.94.94 0 0 1 .076.824 9 9 0 0 1-1.34 2.317.94.94 0 0 1-.751.345l-2.275-.025a1 1 0 0 0-.883.51l-1.116 1.983a.94.94 0 0 1-.676.478 9 9 0 0 1-2.675 0 .94.94 0 0 1-.675-.478L6.87 16.44a1 1 0 0 0-.882-.51l-2.275.025a.94.94 0 0 1-.751-.345 9 9 0 0 1-1.34-2.317.94.94 0 0 1 .076-.824l1.16-1.96a1 1 0 0 0 0-1.018L1.7 7.53a.94.94 0 0 1-.077-.824 9 9 0 0 1 1.34-2.317.94.94 0 0 1 .752-.345zM12.123 10a2.123 2.123 0 1 1-4.245 0 2.123 2.123 0 0 1 4.245 0" clip-rule="evenodd"/></svg>
